images/cd.svg

<svg viewBox="0 0 129.01 93.82" xmlns="http://www.w3.org/2000/svg"><g fill="#f15a24"><path d="m51.26 2.67a11.85 11.85 0 0 0 -7.51-2.67 9 9 0 0 0 -6.44 2.71 20.39 20.39 0 0 0 -3.75 5.94l-31.5 67.48-.18.37a17.48 17.48 0 0 0 -1.88 6.87 9.75 9.75 0 0 0 3.75 7.75 11.77 11.77 0 0 0 7.56 2.7 9 9 0 0 0 6.44-2.71 19.63 19.63 0 0 0 3.69-5.84l31.56-67.63a27.06 27.06 0 0 0 1.51-3.71 12.38 12.38 0 0 0 .53-3.49 9.72 9.72 0 0 0 -3.78-7.77z"/><path d="m120.42 38-.43-.27-42.99-20.15a29.63 29.63 0 0 0 -3.79-1.48 12 12 0 0 0 -3.37-.52 9.73 9.73 0 0 0 -7.22 2.94 10 10 0 0 0 -2.74 7.12 10.07 10.07 0 0 0 2.4 6.61 17.33 17.33 0 0 0 5.72 4.11l25.58 12.14-25.58 12.13a16.93 16.93 0 0 0 -5.8 4.07 10.52 10.52 0 0 0 .44 13.74 9.78 9.78 0 0 0 7.18 2.87 13 13 0 0 0 3.52-.51 22 22 0 0 0 3.52-1.35l42.44-19.45a11.8 11.8 0 0 0 1.25-.61c7-3.22 8.46-7.56 8.46-10.65-.01-4.47-2.89-8.09-8.59-10.74z"/></g></svg>

<svg xmlns="http://www.w3.org/2000/svg" viewBox="0 0 129.01 93.82"><defs><style>.cls-1{fill:#f15a24;}</style></defs><title>cd</title><g id="Layer_2" data-name="Layer 2"><g id="Layer_1-2" data-name="Layer 1"><path class="cls-1" d="M51.26,2.67A11.85,11.85,0,0,0,43.75,0a9,9,0,0,0-6.44,2.71,20.39,20.39,0,0,0-3.75,5.94L2.06,76.13l-.18.37A17.48,17.48,0,0,0,0,83.37a9.75,9.75,0,0,0,3.75,7.75,11.77,11.77,0,0,0,7.56,2.7,9,9,0,0,0,6.44-2.71,19.63,19.63,0,0,0,3.69-5.84L53,17.64a27.06,27.06,0,0,0,1.51-3.71,12.38,12.38,0,0,0,.53-3.49A9.72,9.72,0,0,0,51.26,2.67Z"/><path class="cls-1" d="M120.42,38l-.43-.27L77,17.58a29.63,29.63,0,0,0-3.79-1.48,12,12,0,0,0-3.37-.52,9.73,9.73,0,0,0-7.22,2.94,10,10,0,0,0-2.74,7.12,10.07,10.07,0,0,0,2.4,6.61A17.33,17.33,0,0,0,68,36.36L93.58,48.5,68,60.63a16.93,16.93,0,0,0-5.8,4.07,10.52,10.52,0,0,0,.44,13.74,9.78,9.78,0,0,0,7.18,2.87,13,13,0,0,0,3.52-.51,22,22,0,0,0,3.52-1.35L119.3,60a11.8,11.8,0,0,0,1.25-.61c7-3.22,8.46-7.56,8.46-10.65C129,44.27,126.12,40.65,120.42,38Z"/></g></g></svg>
